app/src/main/assets/symbols/transport/parking.svg

<?xml version="1.0" encoding="UTF-8"?>
<svg viewBox="0 0 9 12" xmlns="http://www.w3.org/2000/svg">
<path d="m0 0v12h1.75v-5h4.25a3 3.5 0 0 0 0-7zm1.75 1.75v3.5h3.75a1.58 1.75 0 0 0 0-3.5z" fill="#0092da" fill-rule="evenodd"/>
</svg>

<?xml version="1.0" encoding="utf-8"?>
<svg xmlns="http://www.w3.org/2000/svg" width="9" height="12" viewBox="0 0 9 12">
<path style="fill:#0092da;fill-opacity:1;stroke:none" fill-rule="evenodd" d="M 0,0 L 0,12 1.75,12 1.75,7 6,7 A 3.0,3.5 0 0,0 6,0 Z M 1.75,1.75 L 1.75,5.25 5.5,5.25 A 1.58,1.75 0 0,0 5.5,1.75 Z"/>
</svg>
